X:11
T:Lady Holderness's Jigg THO1.011
M:6/8
L:1/8
Z:vmp. Peter Dunk 2012.from a transcription by Fynn Titford-Mock 2006
B:Thompson's Compleat Collection of 200 Favourite Country Dances Vol.I,1758
Q:3/8=95
K:A
aed cBA|eBA GFE|FAd cea|dec B3|\
aed cBA|eBA GFE|FAd cea|gaf e3:|
|:bge dcB|cBA cBA|eBG EGB|d2 e cBA|\
a2 e cBA|eBA GFE|FAd cBA|TB3A3:|

